X:1
T:E minor James P. Carrell, 1821
T:Samuel Medley, 1785              86. 86. (C. M.)
T:Lebanon
T:Transcribed from Songs of Zion, 1821
%%score [ 1 2 3 ]
L:1/8
Q:1/4=90
M:2/4
K:G
V:1 treble nm="Tr." snm="Tr."
V:2 treble-8 nm="T." snm="T."
V:3 bass nm="B." snm="B."
V:1
"^1. From all that's mortal, all that's vain,  And from this earthly clod:     A  –  rise  my  soul  and  strive  to  gain   Some  fel–low–\n2. Say what is there beneath the skies,  In all the paths thou'st trod;    Can  suit  thy  wi – shes  or   thy   joys,    Like    fel–low–" B2 | %1
 B2 d2 | B2 B2 | c>B Ac | B2 GF | E2 G2 | A2 G2 | F4 | z2 B2 | e2 e2 | BA Bc | d2 g2 | e2 e2 | %13
 d2 e2 | %14
"^1.  –ship with  God.          A    –   rise   my   soul   and   strive   to   gain     Some    fel – low – ship   with  God.\n2.  –ship  with God.         Can     suit   thy   wi–shes    or      thy      joys,       Like     fel – low – ship   with  God." B2 B2 | %15
 B4 | z2 BA | G2 G2 | G2 A2 | B2 B2 | e2 e2 | d2 d2 | e2 f2 | e4 |] %24
V:2
"^3. Not  life,  nor  all  the    toys   of  art,  Nor  pleasure's  flowery  road;       Can  to my soul  such bliss  im–part,    As     fel – low –\n4. Not health nor friendship here below,  Nor wealth that golden load; Can such delight  or  comfort  show,    As     fel – low –" E2 | %1
 G2 A2 | B2 GE | G2 F2 | E2 B2 | e2 e2 | c2 B2 | A4 | z2 GA | B2 g2 | e2 de | f2 ed | B2 cA | %13
 B2 GE | %14
"^3. – ship  with  God.        Can        to     my      soul  such  bliss  im –part,    As          fel – low – ship   with   God.\n4. – ship  with  God.        Can       such   de – light     or    comfort  show,   As          fel – low – ship    with   God." G2 F>E | %15
 E4 | z2 B>c | d2 d2 | Bc d2 | e2 e2 | BA G2 | A2 A2 | B>c d2 | e4 |] %24
V:3
"^5. When  I  am  made  in  love  to  bear  Af–flic–tion's needful rod;  Light, sweet and kind the strokes appear,  Through fel–low–\n6.  In  fierce  temp–ta–tion's  fie–ry  blast    Or  dark  desertion's  road;  I'm     hap–py    if        I     can  but  taste   Some        fel–low–" E,2 | %1
 E,2 D,2 | E,2 B,2 | G,2 B,2 | E,2 E,2 | A,2 G,2 | F,2 E,2 | D,4 | z2 E,F, | G,2 E,2 | E,2 D,C, | %11
 B,,2 B,,2 | E,2 E,2 | G,2 G,A, | %14
"^5. –ship with God.          Light,   sweet and kind the strokes  appear,    Through  fel – low – ship  with  God.\n6.  –ship with God.          I'm       hap– py     if         I        can   but   taste     Some         fel – low – ship   with  God." B,2 B,,2 | %15
 E,4 | %16
 z2"^7. So when the icy hand of death,\nShall chill my flowing blood;\nWith joy I'll yield my latest breath,\nIn fellowship with God.\n8. When I at last to heaven ascend,\nAnd gain my blest abode;\nThere an eternity I'll spend,\nIn fellowship with God." G,E, | %17
 G,2 G,2 | E,2 D,2 | E,2 E,2 | E,F, G,E, | D,2 D,E, | B,,2 B,,2 | E,4 |] %24

